X: 17832
T: Hopeful, The
R: jig
M: 6/8
K: Amajor
|:A2B ceg|aeg age|=g2f fef|=gde fed|
cAB ceg|aeb c'ba|ba=g dBd|fed =cBA:|
K: Amin
|:zGA eAd|zGA eAd|zGA eAd|zcc cBA|
zGA eAd|zGA eAd|zGA gfe|fed cBA:|

